Hatter-kde/actions/24/resource-group-new.svg

<svg xmlns="http://www.w3.org/2000/svg" viewBox="0 0 24 24">
  <defs id="defs3051">
    <style type="text/css" id="current-color-scheme">
      .ColorScheme-Text {
        color:#363636;
      }
      </style>
  </defs>
 <path style="fill:currentColor;fill-opacity:1;stroke:none" 
     d="M 15 4 C 13.338 4 12 5.338 12 7 C 12 8.662 13.338 10 15 10 C 16.662 10 18 8.662 18 7 C 18 5.338 16.662 4 15 4 z M 9 7 C 7.3380003 7 6 8.3380003 6 10 C 6 11.662 7.3380003 13 9 13 C 10.662 13 12 11.662 12 10 C 12 8.3380003 10.662 7 9 7 z M 15 11 C 14.353654 11 13.744006 11.134157 13.181641 11.361328 L 13.636719 12.275391 C 14.064535 12.114885 14.514485 12 15 12 C 16.482985 12 17.758385 12.807292 18.449219 14 L 19.580078 14 C 18.810617 12.232833 17.056835 11 15 11 z M 9 14 C 6.2299834 14 4 16.229983 4 19 L 4 20 L 14 20 L 14 19 C 14 16.229983 11.770017 14 9 14 z M 9 15 C 11.216017 15 13 16.783983 13 19 L 5 19 C 5 16.783983 6.7839834 15 9 15 z M 17 15 L 17 17 L 15 17 L 15 18 L 17 18 L 17 20 L 18 20 L 18 18 L 20 18 L 20 17 L 18 17 L 18 15 L 17 15 z "
     class="ColorScheme-Text"
     />
</svg>

<?xml version="1.0" encoding="UTF-8"?>
<svg viewBox="0 0 24 24" xmlns="http://www.w3.org/2000/svg">
 <defs id="defs3051">
  <style id="current-color-scheme" type="text/css">.ColorScheme-Text {
        color:#363636;
      }</style>
 </defs>
 <path class="ColorScheme-Text" d="m15 4c-1.662 0-3 1.338-3 3s1.338 3 3 3 3-1.338 3-3-1.338-3-3-3zm-6 3c-1.662 0-3 1.338-3 3 0 1.662 1.338 3 3 3 1.662 0 3-1.338 3-3 0-1.662-1.338-3-3-3zm6 4c-0.64635 0-1.256 0.13416-1.8184 0.36133l0.45508 0.91406c0.42782-0.16051 0.87777-0.27539 1.3633-0.27539 1.483 0 2.7584 0.80729 3.4492 2h1.1309c-0.76946-1.7672-2.5232-3-4.5801-3zm-6 3c-2.77 0-5 2.23-5 5v1h10v-1c0-2.77-2.23-5-5-5zm0 1c2.216 0 4 1.784 4 4h-8c0-2.216 1.784-4 4-4zm8 0v2h-2v1h2v2h1v-2h2v-1h-2v-2h-1z" fill="currentColor"/>
</svg>
